svg/fluentui-system-icons/ic_fluent_search_info_20_regular.svg

<svg width="20" height="20" viewBox="0 0 20 20" fill="none" xmlns="http://www.w3.org/2000/svg">
<path d="M8.5 3C11.5376 3 14 5.46243 14 8.5C14 9.83879 13.5217 11.0659 12.7266 12.0196L16.8536 16.1464C17.0488 16.3417 17.0488 16.6583 16.8536 16.8536C16.68 17.0271 16.4106 17.0464 16.2157 16.9114L16.1464 16.8536L12.0196 12.7266C11.0659 13.5217 9.83879 14 8.5 14C5.46243 14 3 11.5376 3 8.5C3 5.46243 5.46243 3 8.5 3ZM8.5 4C6.01472 4 4 6.01472 4 8.5C4 10.9853 6.01472 13 8.5 13C10.9853 13 13 10.9853 13 8.5C13 6.01472 10.9853 4 8.5 4ZM8.5 8C8.77614 8 9 8.22386 9 8.5V10.5C9 10.7761 8.77614 11 8.5 11C8.22386 11 8 10.7761 8 10.5V8.5C8 8.22386 8.22386 8 8.5 8ZM9 6.5C9 6.77614 8.77614 7 8.5 7C8.22386 7 8 6.77614 8 6.5C8 6.22386 8.22386 6 8.5 6C8.77614 6 9 6.22386 9 6.5Z" fill="#212121"/>
</svg>

<svg xmlns="http://www.w3.org/2000/svg" width="20" height="20"><path d="M8.5 3a5.5 5.5 0 0 1 4.227 9.02l4.127 4.126a.5.5 0 0 1-.638.765l-.07-.057-4.126-4.127A5.5 5.5 0 1 1 8.5 3Zm0 1a4.5 4.5 0 1 0 0 9 4.5 4.5 0 0 0 0-9Zm0 4a.5.5 0 0 1 .5.5v2a.5.5 0 0 1-1 0v-2a.5.5 0 0 1 .5-.5ZM9 6.5a.5.5 0 1 1-1 0 .5.5 0 0 1 1 0Z"/></svg>
